client/assets/images/email-providers/gsuite.svg

<svg
	width="24"
	height="24"
	viewBox="0 0 24 24"
	fill="none"
	xmlns="http://www.w3.org/2000/svg"
>
	<g clip-path="url(#clip0)">
		<path
			fill-rule="evenodd"
			clip-rule="evenodd"
			d="M16.5259 6.28807C15.3672 5.15326 13.8208 4.53504 12.2208 4.56045C9.29292 4.56045 6.80633 6.58871 5.91973 9.31987L5.91945 9.31965V9.31985C5.44935 10.7511 5.44935 12.3008 5.91945 13.7321L5.91929 13.7322H5.92385C6.81458 16.4591 9.29705 18.4874 12.2249 18.4874C13.7361 18.4874 15.0335 18.0905 16.039 17.3895V17.3862C17.2225 16.5817 18.0308 15.3156 18.2823 13.8844H12.2205V9.44678H22.806C22.938 10.2174 22.9999 11.005 22.9999 11.7884C22.9999 15.2934 21.78 18.2567 19.6574 20.2638L19.6599 20.2658C17.8001 22.0273 15.2476 23.0478 12.2208 23.0478C7.97746 23.0478 4.09705 20.5918 2.19189 16.7005V16.7001L2.19162 16.7003C0.599865 13.4441 0.599865 9.60779 2.19162 6.35156H2.19191C4.09706 2.45596 7.97747 4.41542e-05 12.2208 4.41542e-05C15.0084 -0.0338307 17.7012 1.0417 19.73 2.99797L16.5259 6.28807Z"
			fill="#646970"
		/>
	</g>
</svg>

<svg width="24" height="24" fill="none" xmlns="http://www.w3.org/2000/svg"><g clip-path="url(#clip0)"><path fill-rule="evenodd" clip-rule="evenodd" d="M16.526 6.288A6.012 6.012 0 0012.22 4.56c-2.928 0-5.415 2.029-6.301 4.76a7.078 7.078 0 000 4.412h.004c.89 2.727 3.373 4.755 6.3 4.755 1.512 0 2.81-.396 3.815-1.097v-.004a5.345 5.345 0 002.243-3.502H12.22V9.447h10.586c.132.77.194 1.558.194 2.341 0 3.505-1.22 6.469-3.343 8.476l.003.002c-1.86 1.761-4.412 2.782-7.44 2.782-4.243 0-8.123-2.456-10.028-6.347a11.81 11.81 0 010-10.35C4.097 2.457 7.977 0 12.22 0a10.632 10.632 0 017.509 2.998l-3.204 3.29z" fill="#646970"/></g></svg>
